packages/match-logos/mono/svg/nextdoor.svg

<svg fill="none" height="34" viewBox="0 0 200 34" width="200" xmlns="http://www.w3.org/2000/svg" xmlns:xlink="http://www.w3.org/1999/xlink"><clipPath id="a"><path d="m0 0h200v33.3827h-200z"/></clipPath><g clip-path="url(#a)" fill="#1f304c"><path d="m81.3473 9.78518h-6.1579c-.0952-.00079-.1891.02216-.2733.06676s-.1559.10946-.2087.18866l-4.5792 6.8087-4.5793-6.8087c-.053-.07905-.1247-.14379-.2088-.18837-.0842-.04458-.178-.06762-.2732-.06705h-6.0928c-.1047-.00063-.2075.02727-.2975.0807s-.1638.13036-.2133.22252c-.0496.0922-.0731.1961-.068.3007.0051.1045.0385.2057.0967.2926l7.3341 10.8794-7.4859 10.4021c-.0623.0857-.0997.1869-.108.2925s.0128.2114.061.3058c.0482.0943.1215.1735.2119.2287s.1943.0843.3003.084h6.2109c.0915.0003.1818-.0215.2631-.0634.0814-.042.1515-.1029.2044-.1776l4.6974-6.5941 4.6973 6.5941c.0531.0746.1232.1354.2045.1773.0814.0419.1716.0638.2631.0637h6.1699c.1059.0003.2099-.0288.3003-.084s.1637-.1344.2119-.2287c.0481-.0944.0692-.2002.0609-.3058-.0082-.1056-.0456-.2068-.1079-.2925l-7.4859-10.4021 7.3292-10.8794c.058-.0866.0914-.1873.0967-.2914s-.0178-.2077-.0668-.2997c-.049-.09207-.122-.16908-.2113-.22286s-.1915-.08231-.2958-.08256z"/><path d="m95.3017 23.547v-8.2209h5.0613c.152 0 .298-.0604.406-.1679s.169-.2534.17-.4057v-4.3913c0-.1528-.061-.2993-.169-.4073-.108-.10803-.254-.16872-.407-.16872h-5.0613v-5.84457c-.0007-.15235-.0616-.29824-.1696-.40575-.1079-.1075-.2541-.16786-.4064-.16786h-5.2469c-.1528 0-.2993.06069-.4073.16872-.108.10802-.1687.25454-.1687.40731 0 6.50737.535 5.84215-4.2009 5.84215-.0981-.00031-.1953.0187-.2861.05596-.0907.03725-.1733.09202-.2429.16116-.0696.0692-.1249.1514-.1627.2419-.0379.0905-.0575.1876-.0578.2857v4.0515c0 .098.0193.195.0569.2855s.0927.1727.1621.2419.1518.124.2424.1613.1877.0563.2857.056h4.2057v9.467c0 5.6325 3.9647 8.3583 8.9175 8.3583 1.2164.0264 2.4313-.1024 3.6153-.3832.124-.0319.234-.1041.313-.2053.079-.1011.122-.2255.123-.3538v-4.3817c-.001-.0878-.022-.1742-.061-.2527-.039-.0786-.096-.1472-.165-.2006-.07-.0534-.151-.0903-.237-.1078s-.175-.0151-.26.0068c-.621.1391-1.2557.2054-1.8919.1976-2.7524 0-3.9574-1.1086-3.9574-3.9237z"/><path d="m121.507 12.3712c-1.027-1.4774-3.499-3.0946-6.717-3.0946-6.204 0-10.961 5.4951-10.961 12.0507 0 6.5555 4.757 12.0506 10.961 12.0506 3.218 0 5.69-1.6172 6.717-3.0946v1.8389c0 .0982.02.1953.057.286.038.0906.093.173.162.2423.069.0694.152.1245.242.162.091.0376.188.0569.286.0569h5.062c.152 0 .299-.0607.407-.1687.108-.1081.169-.2546.169-.4073v-31.717379c0-.15277-.061-.299284-.169-.407309-.108-.1080248-.255-.168712-.407-.168712h-5.235c-.076-.00000067-.151.0149145-.22.0438918-.07.0289773-.133.0714432-.187.1249642-.053.05352-.095.11704-.124.186912s-.043.144723-.043.220253zm-5.365 15.2393c-3.497 0-5.876-2.6801-5.876-6.2808 0-3.6008 2.379-6.2808 5.876-6.2808s5.876 2.6776 5.876 6.2808c0 3.6031-2.374 6.2808-5.876 6.2808z"/><path d="m197.858 9.50788c-2.613 0-4.992 1.70882-5.785 3.97192v-3.1187c0-.1528-.06-.2993-.168-.40734-.108-.10803-.255-.16871-.408-.16871h-5.239c-.153 0-.3.06068-.408.16871-.108.10804-.168.25454-.168.40734v21.9322c0 .1527.06.2993.168.4073s.255.1687.408.1687h5.239c.153 0 .3-.0607.408-.1687s.168-.2546.168-.4073v-10.46c0-3.7863 2.006-6.1434 5.037-6.1434.733.0002 1.463.0991 2.17.294.085.023.174.026.26.0089.087-.0171.168-.0539.238-.1075s.127-.1226.166-.2016c.039-.0791.059-.166.059-.2541v-5.1963c-.001-.1334-.048-.26263-.132-.36578-.085-.10316-.203-.17398-.334-.20057-.552-.1135-1.115-.16684-1.679-.15907z"/><path d="m143.336 9.27661c-6.766 0-12.268 5.30229-12.268 12.05069 0 6.7483 5.502 12.0506 12.268 12.0506 6.765 0 12.265-5.3023 12.265-12.0506 0-6.7484-5.502-12.05069-12.265-12.05069zm0 18.19409c-3.36 0-5.83-2.5861-5.83-6.141 0-3.555 2.47-6.141 5.83-6.141 3.359 0 5.784 2.586 5.784 6.141 0 3.5549-2.427 6.141-5.784 6.141z"/><path d="m170.257 9.27661c-6.763 0-12.268 5.30229-12.268 12.05069 0 6.7483 5.505 12.0506 12.268 12.0506s12.267-5.3023 12.267-12.0506c0-6.7484-5.519-12.05069-12.267-12.05069zm0 18.19409c-3.36 0-5.83-2.5861-5.83-6.141 0-3.555 2.456-6.141 5.83-6.141s5.784 2.586 5.784 6.141c0 3.5549-2.439 6.141-5.784 6.141z"/><path d="m19.5078 8.99939c-4.2949 0-7.9535 1.97151-10.00692 4.98901-.17112.241-.46274.7881-.85318.7905-1.8775.0144-1.99318-2.3017-2.05344-4.3672-.00678-.1479-.07005-.2876-.17677-.3903-.10671-.10268-.24875-.16052-.39684-.1616l-5.437257-.03615c-.076778-.00001-.152792.01527-.223607.04494-.070814.02967-.13501.07314-.18885.12788-.053841.05473-.0962481.11963-.1247436.19093-.0284954.0713-.04250887.1476-.04122922.2243.12050682 5.0444 1.04840682 8.4716 7.16291682 9.8358.16292.0378.30806.1301.41148.2615.10341.1315.1589.2943.1573.4615v11.3276c0 .0755.01494.1501.04394.2197.02901.0697.07151.1328.12507.1859.05355.0532.11709.0951.18695.1235.06985.0285.14465.0428.22007.0421h5.28541c.1528 0 .2993-.0607.4073-.1687s.1687-.2545.1687-.4073v-11.6964c0-2.6005 1.8438-5.5433 5.3409-5.5433 3.3284 0 5.3384 2.95 5.3384 5.5433v11.7012c0 .1528.0607.2993.1687.4073.1081.1081.2546.1688.4073.1688h5.2806c.1524-.0007.2983-.0617.4058-.1696.1075-.108.1679-.2541.1679-.4065v-12.5688c-.0025-6.0109-5.1312-10.72991-11.7759-10.72991z"/><path d="m46.2339 9.27661c-7.0906 0-12.2676 5.21789-12.2676 12.05069 0 7.2954 5.4108 11.9229 12.3592 12.0506 5.4565.1013 9.0886-3.0223 9.9514-4.1165.0457-.0606.0788-.1297.0974-.2032.0186-.0736.0223-.1502.0108-.2252-.0114-.075-.0378-.1469-.0775-.2116s-.0919-.1208-.1536-.165l-3.6273-2.8343c-.3952-.3928-.7013-.1807-.9375.0121-.5808.47-1.6871 1.8269-5.2155 1.9715-3.0778.1253-5.8325-1.7088-6.2037-4.8034h16.9143c.1461-.0009.2865-.0571.3929-.1572.1064-.1002.171-.2369.1807-.3827.0482-.6821.0482-1.1858.0482-1.6292-.0024-7.4763-5.3625-11.35659-11.4722-11.35659zm-5.8325 9.23559c.6073-2.8174 3.2657-4.0177 5.6445-4.0177s4.7118 1.2943 5.271 4.0177z"/></g></svg>

<svg width="200" height="34" viewBox="0 0 200 34" fill="none" xmlns="http://www.w3.org/2000/svg">
<g clip-path="url(#clip0)">
<path d="M81.3468 9.78518H75.1889C75.0937 9.78439 74.9998 9.80734 74.9156 9.85194C74.8315 9.89654 74.7597 9.9614 74.7069 10.0406L70.1277 16.8493L65.5484 10.0406C65.4954 9.96155 65.4237 9.89681 65.3396 9.85223C65.2554 9.80765 65.1616 9.78461 65.0664 9.78518H58.9736C58.8689 9.78455 58.7661 9.81245 58.6761 9.86588C58.5861 9.91931 58.5124 9.99624 58.4628 10.0884C58.4132 10.1806 58.3897 10.2845 58.3948 10.3891C58.3999 10.4936 58.4333 10.5948 58.4916 10.6817L65.8256 21.5611L58.3397 31.9632C58.2774 32.0489 58.24 32.1501 58.2317 32.2557C58.2234 32.3613 58.2445 32.4671 58.2927 32.5615C58.3409 32.6558 58.4142 32.735 58.5046 32.7902C58.595 32.8454 58.699 32.8745 58.8049 32.8742H65.0158C65.1073 32.8745 65.1976 32.8527 65.279 32.8108C65.3603 32.7688 65.4304 32.7079 65.4833 32.6332L70.1807 26.0391L74.878 32.6332C74.9311 32.7078 75.0012 32.7686 75.0826 32.8105C75.1639 32.8524 75.2541 32.8743 75.3456 32.8742H81.5155C81.6214 32.8745 81.7254 32.8454 81.8158 32.7902C81.9062 32.735 81.9795 32.6558 82.0277 32.5615C82.0759 32.4671 82.097 32.3613 82.0887 32.2557C82.0804 32.1501 82.043 32.0489 81.9807 31.9632L74.4948 21.5611L81.824 10.6817C81.882 10.5951 81.9155 10.4944 81.9207 10.3903C81.926 10.2862 81.9029 10.1826 81.8539 10.0906C81.8049 9.99853 81.7319 9.92152 81.6426 9.86774C81.5533 9.81396 81.4511 9.78543 81.3468 9.78518V9.78518Z" fill="#1F304C"/>
<path d="M95.3014 23.547V15.3261H100.363C100.515 15.3261 100.661 15.2657 100.769 15.1582C100.877 15.0507 100.938 14.9048 100.939 14.7525V10.3612C100.939 10.2084 100.878 10.0619 100.77 9.9539C100.662 9.84587 100.515 9.78518 100.363 9.78518H95.3014V3.94061C95.3008 3.78826 95.2398 3.64237 95.1319 3.53486C95.0239 3.42736 94.8778 3.367 94.7254 3.367H89.4786C89.3258 3.367 89.1793 3.42769 89.0713 3.53572C88.9632 3.64374 88.9026 3.79026 88.9026 3.94303C88.9026 10.4504 89.4376 9.78518 84.7017 9.78518C84.6036 9.78487 84.5064 9.80388 84.4156 9.84114C84.3248 9.87839 84.2423 9.93316 84.1727 10.0023C84.1031 10.0715 84.0478 10.1537 84.0099 10.2442C83.9721 10.3347 83.9525 10.4318 83.9521 10.5299V14.5814C83.9521 14.6794 83.9715 14.7764 84.0091 14.8669C84.0466 14.9574 84.1017 15.0396 84.1711 15.1088C84.2405 15.178 84.3229 15.2328 84.4136 15.2701C84.5042 15.3074 84.6013 15.3264 84.6993 15.3261H88.905V24.7931C88.905 30.4256 92.8696 33.1514 97.8224 33.1514C99.0389 33.1778 100.254 33.049 101.438 32.7682C101.562 32.7363 101.672 32.6641 101.751 32.5629C101.83 32.4618 101.873 32.3374 101.874 32.2091V27.8274C101.873 27.7396 101.852 27.6532 101.813 27.5747C101.774 27.4961 101.717 27.4275 101.647 27.3741C101.578 27.3207 101.497 27.2838 101.411 27.2663C101.325 27.2488 101.236 27.2512 101.151 27.2731C100.53 27.4122 99.895 27.4785 99.2589 27.4707C96.5065 27.4707 95.3014 26.3621 95.3014 23.547Z" fill="#1F304C"/>
<path d="M121.507 12.3712C120.48 10.8938 118.007 9.2766 114.79 9.2766C108.586 9.2766 103.829 14.7717 103.829 21.3273C103.829 27.8828 108.586 33.3779 114.79 33.3779C118.007 33.3779 120.48 31.7607 121.507 30.2833V32.1222C121.507 32.2204 121.526 32.3175 121.564 32.4082C121.601 32.4988 121.656 32.5812 121.726 32.6505C121.795 32.7199 121.878 32.775 121.968 32.8125C122.059 32.8501 122.156 32.8694 122.254 32.8694H127.315C127.468 32.8694 127.615 32.8087 127.723 32.7007C127.831 32.5926 127.891 32.4461 127.891 32.2934V0.576021C127.891 0.423251 127.831 0.276737 127.723 0.168712C127.615 0.0606872 127.468 0 127.315 0H122.081C122.005 -6.66697e-07 121.93 0.0149145 121.86 0.0438918C121.791 0.0728691 121.727 0.115335 121.674 0.168856C121.621 0.222376 121.579 0.285896 121.55 0.355768C121.521 0.42564 121.507 0.500491 121.507 0.576021V12.3712ZM116.142 27.6105C112.645 27.6105 110.266 24.9304 110.266 21.3297C110.266 17.7289 112.645 15.0489 116.142 15.0489C119.639 15.0489 122.018 17.7265 122.018 21.3297C122.018 24.9328 119.644 27.6105 116.142 27.6105Z" fill="#1F304C"/>
<path d="M197.857 9.50788C195.245 9.50788 192.866 11.2167 192.073 13.4798V10.3611C192.073 10.2083 192.012 10.0618 191.904 9.95376C191.796 9.84573 191.65 9.78505 191.497 9.78505H186.257C186.105 9.78505 185.958 9.84573 185.85 9.95376C185.742 10.0618 185.681 10.2083 185.681 10.3611V32.2933C185.681 32.446 185.742 32.5926 185.85 32.7006C185.958 32.8086 186.105 32.8693 186.257 32.8693H191.497C191.65 32.8693 191.796 32.8086 191.904 32.7006C192.012 32.5926 192.073 32.446 192.073 32.2933V21.8333C192.073 18.047 194.078 15.6899 197.11 15.6899C197.843 15.6901 198.573 15.789 199.279 15.9839C199.364 16.0069 199.454 16.0099 199.54 15.9928C199.627 15.9757 199.708 15.9389 199.778 15.8853C199.848 15.8317 199.904 15.7627 199.943 15.6837C199.982 15.6046 200.002 15.5177 200.002 15.4296V10.2333C200.002 10.0999 199.955 9.97067 199.87 9.86752C199.786 9.76436 199.668 9.69354 199.537 9.66695C198.985 9.55345 198.421 9.50011 197.857 9.50788V9.50788Z" fill="#1F304C"/>
<path d="M143.335 9.27661C136.57 9.27661 131.068 14.5789 131.068 21.3273C131.068 28.0756 136.57 33.3779 143.335 33.3779C150.101 33.3779 155.601 28.0756 155.601 21.3273C155.601 14.5789 150.098 9.27661 143.335 9.27661ZM143.335 27.4707C139.976 27.4707 137.505 24.8846 137.505 21.3297C137.505 17.7747 139.976 15.1887 143.335 15.1887C146.695 15.1887 149.12 17.7747 149.12 21.3297C149.12 24.8846 146.693 27.4707 143.335 27.4707V27.4707Z" fill="#1F304C"/>
<path d="M170.257 9.27661C163.494 9.27661 157.989 14.5789 157.989 21.3273C157.989 28.0756 163.494 33.3779 170.257 33.3779C177.019 33.3779 182.524 28.0756 182.524 21.3273C182.524 14.5789 177.005 9.27661 170.257 9.27661ZM170.257 27.4707C166.897 27.4707 164.426 24.8846 164.426 21.3297C164.426 17.7747 166.882 15.1887 170.257 15.1887C173.631 15.1887 176.041 17.7747 176.041 21.3297C176.041 24.8846 173.602 27.4707 170.257 27.4707V27.4707Z" fill="#1F304C"/>
<path d="M19.5075 8.99939C15.2127 8.99939 11.5541 10.9709 9.50064 13.9884C9.32952 14.2294 9.03789 14.7765 8.64745 14.7789C6.76996 14.7933 6.65427 12.4772 6.59402 10.4117C6.58724 10.2638 6.52397 10.1241 6.41725 10.0214C6.31053 9.91872 6.1685 9.86088 6.02041 9.8598L0.583149 9.82365C0.506371 9.82364 0.430356 9.83892 0.359542 9.86859C0.288728 9.89826 0.224532 9.94173 0.170691 9.99647C0.116851 10.0512 0.0744437 10.1161 0.0459483 10.1874C0.0174528 10.2587 0.00343939 10.335 0.00471904 10.4117C0.125226 15.4561 1.05313 18.8833 7.16763 20.2475C7.33055 20.2853 7.4757 20.3776 7.57911 20.509C7.68252 20.6405 7.73801 20.8033 7.73642 20.9705V32.2981C7.73642 32.3736 7.75135 32.4482 7.78036 32.5178C7.80937 32.5875 7.85187 32.6506 7.90542 32.7037C7.95897 32.7569 8.02251 32.7988 8.09237 32.8272C8.16223 32.8557 8.23703 32.87 8.31244 32.8693H13.5979C13.7506 32.8693 13.8971 32.8086 14.0052 32.7006C14.1132 32.5926 14.1739 32.4461 14.1739 32.2933V20.5969C14.1739 17.9964 16.0176 15.0536 19.5147 15.0536C22.8431 15.0536 24.8532 18.0036 24.8532 20.5969V32.2981C24.8532 32.4509 24.9139 32.5974 25.0219 32.7054C25.1299 32.8135 25.2764 32.8742 25.4292 32.8742H30.7098C30.8622 32.8735 31.0081 32.8125 31.1156 32.7046C31.2231 32.5966 31.2834 32.4505 31.2834 32.2981V19.7293C31.281 13.7184 26.1522 8.99939 19.5075 8.99939Z" fill="#1F304C"/>
<path d="M46.2336 9.27661C39.143 9.27661 33.9661 14.4945 33.9661 21.3273C33.9661 28.6227 39.3768 33.2502 46.3252 33.3779C51.7818 33.4792 55.4138 30.3556 56.2767 29.2614C56.3224 29.2008 56.3555 29.1317 56.3741 29.0582C56.3926 28.9846 56.3963 28.908 56.3849 28.833C56.3734 28.758 56.3471 28.6861 56.3074 28.6214C56.2677 28.5567 56.2155 28.5006 56.1538 28.4564L52.5265 25.6221C52.1312 25.2293 51.8252 25.4414 51.589 25.6342C51.0081 26.1042 49.9019 27.4611 46.3734 27.6057C43.2957 27.731 40.5409 25.8969 40.1697 22.8023H57.0841C57.2302 22.8014 57.3706 22.7452 57.477 22.6451C57.5834 22.5449 57.6479 22.4082 57.6577 22.2624C57.7059 21.5803 57.7059 21.0766 57.7059 20.6332C57.7035 13.1569 52.3433 9.27661 46.2336 9.27661ZM40.4011 18.5122C41.0085 15.6948 43.6669 14.4945 46.0457 14.4945C48.4245 14.4945 50.7575 15.7888 51.3166 18.5122H40.4011Z" fill="#1F304C"/>
</g>
<defs>
<clipPath id="clip0">
<rect width="200" height="33.3827" fill="white"/>
</clipPath>
</defs>
</svg>
